X: 752
T: The Kilkenny Girl
M:6/8
L:1/8
B:O'Neill's 752
R:Jig
Z:"Transcribed by Bob Safranek, rjs@gsp.org"
K:G
   B | d2 B d2 B | G2 G GAB  | c2 A c2 A | FGA D2 B |
       d2 B g2 d | e2 c g2 e | ded  BcA  | G3  G2  :|
|: D | DGA  cAF  | GBd  dBG  | DFA  cAF  | GBd dBG  |
       ece  ege  | dBd  dgd  | edc  BcA  | G3  G2  :|


